src/assets/svg/icons/fa/nuevos/classic/light/input-text classic light.svg

<svg xmlns="http://www.w3.org/2000/svg" viewBox="0 0 640 512"><!--! Font Awesome Pro 6.4.0 by @fontawesome - https://fontawesome.com License - https://fontawesome.com/license (Commercial License) Copyright 2023 Fonticons, Inc. --><path d="M64 96c-17.7 0-32 14.3-32 32V384c0 17.7 14.3 32 32 32H576c17.7 0 32-14.3 32-32V128c0-17.7-14.3-32-32-32H64zM0 128C0 92.7 28.7 64 64 64H576c35.3 0 64 28.7 64 64V384c0 35.3-28.7 64-64 64H64c-35.3 0-64-28.7-64-64V128zm176 32c6.5 0 12.4 4 14.9 10.1l64 160c3.3 8.2-.7 17.5-8.9 20.8s-17.5-.7-20.8-8.9L216.4 320l-.4 0H136l-.4 0-8.8 21.9c-3.3 8.2-12.6 12.2-20.8 8.9s-12.2-12.6-8.9-20.8l64-160c2.4-6.1 8.3-10.1 14.9-10.1zm0 59.1L148.4 288h55.1L176 219.1zM288 176c0-8.8 7.2-16 16-16h56c30.9 0 56 25.1 56 56c0 12.1-3.8 23.3-10.4 32.5C421.5 258.4 432 276 432 296c0 30.9-25.1 56-56 56H304c-8.8 0-16-7.2-16-16V320 256 192 176zm72 96H320v48h56c13.3 0 24-10.7 24-24s-10.7-24-24-24H360zm0-32c13.3 0 24-10.7 24-24s-10.7-24-24-24H320v48h40z"/></svg>

<svg xmlns="http://www.w3.org/2000/svg" viewBox="0 0 640 512"><path d="M176 160C182.5 160 188.4 163.1 190.9 170.1L254.9 330.1C258.1 338.3 254.1 347.6 245.9 350.9C237.7 354.1 228.4 350.1 225.1 341.9L216.4 319.1L216 320H136L135.6 319.1L126.9 341.9C123.6 350.1 114.3 354.1 106.1 350.9C97.85 347.6 93.86 338.3 97.14 330.1L161.1 170.1C163.6 163.1 169.5 160 176 160H176zM148.4 288H203.6L176 219.1L148.4 288zM288 176C288 167.2 295.2 160 304 160H360C390.9 160 416 185.1 416 216C416 228.1 412.2 239.3 405.6 248.5C421.5 258.4 432 275.1 432 296C432 326.9 406.9 352 376 352H304C295.2 352 288 344.8 288 336V176zM320 272V320H376C389.3 320 400 309.3 400 296C400 282.7 389.3 272 376 272H320zM360 240C373.3 240 384 229.3 384 216C384 202.7 373.3 192 360 192H320V240H360zM0 128C0 92.65 28.65 64 64 64H576C611.3 64 640 92.65 640 128V384C640 419.3 611.3 448 576 448H64C28.65 448 0 419.3 0 384V128zM32 128V384C32 401.7 46.33 416 64 416H576C593.7 416 608 401.7 608 384V128C608 110.3 593.7 96 576 96H64C46.33 96 32 110.3 32 128z"/></svg>
